svg/mcv4u/one-sided-limit.svg

<svg xmlns="http://www.w3.org/2000/svg" viewBox="0 0 493.329 330.58" xml:space="preserve"><path fill="none" stroke="#CCC" stroke-miterlimit="10" d="M426.78 32.58v160m-50-160v160m-50-160v160m-50-160v160m-50-160v160m-50-160v160m-50-160v160m-50-160v160m350 17v121m-50-121v121m-50-121v121m-50-121v121m-50-121v121m-50-121v121m-50-121v121m-50-121v121m400.5-247.5h-451m451 50h-451m451 50h-451m451 50h-451m451 50h-451"/><path fill="none" stroke="#000" stroke-miterlimit="10" d="M26.78 324.58v-286"/><path d="m30.846 321.366-3.703 1.574-3.704-1.574 3.704 8.779zm0-279.836-3.703-1.573-3.704 1.573 3.704-8.779z"/><path fill="none" stroke="#000" stroke-miterlimit="10" d="M471.28 183.08h-444"/><path d="m468.864 179.048 1.574 3.703-1.574 3.704 8.779-3.704z"/><text transform="translate(482.254 188.552)" font-family="'Equity Text B'" font-style="italic" font-size="24">x</text><text transform="translate(13.254 20.472)"><tspan x="0" y="0" font-family="'Equity Text B'" font-style="italic" font-size="24" letter-spacing="2">f</tspan><tspan x="9.384" y="0" font-family="'Equity Text B'" font-size="24">(</tspan><tspan x="17.231" y="0" font-family="'Equity Text B'" font-style="italic" font-size="24">x</tspan><tspan x="27.815" y="0" font-family="'Equity Text B'" font-size="24">)</tspan></text><path fill="none" stroke="#000" stroke-miterlimit="10" d="M21.28 83.08h5m-5 50h5m-5 50h5m-5 50h5m-5 50h5m400.5-99.5v5m-50-5v5m-50-5v5m-50-5v5m-50-5v5m-50-5v5m-50-5v5m-50-5v5"/><text transform="translate(73.349 206.396)" font-family="'Concourse T3'" font-size="16">1</text><text transform="translate(9.52 138.325)" font-family="'Concourse T3'" font-size="16">1</text><text transform="translate(7.28 188.251)" font-family="'Concourse T3'" font-size="16">0</text><text transform="translate(1.44 238.177)" font-family="'Concourse T3'" font-size="16">−1</text><text transform="translate(0 288.103)" font-family="'Concourse T3'" font-size="16">−2</text><text transform="translate(8.08 88.326)" font-family="'Concourse T3'" font-size="16">2</text><text transform="translate(123.148 206.396)" font-family="'Concourse T3'" font-size="16">2</text><text transform="translate(172.648 206.396)" font-family="'Concourse T3'" font-size="16">3</text><text transform="translate(222.348 206.396)" font-family="'Concourse T3'" font-size="16">4</text><text transform="translate(272.648 206.396)" font-family="'Concourse T3'" font-size="16">5</text><text transform="translate(322.728 206.396)" font-family="'Concourse T3'" font-size="16">6</text><text transform="translate(372.908 206.396)" font-family="'Concourse T3'" font-size="16">7</text><text transform="translate(422.888 206.396)" font-family="'Concourse T3'" font-size="16">8</text><path fill="none" stroke="#000" stroke-width="2" stroke-miterlimit="10" d="M33.28 233.58h194"/><path d="m36.059 237.283-1.574-3.703 1.574-3.704-8.779 3.704z"/><path fill="none" stroke="#000" stroke-width="2" stroke-miterlimit="10" d="M227.28 133.58h244"/><path d="m468.502 137.283 1.573-3.703-1.573-3.704 8.778 3.704z"/><circle fill="#FFF" stroke="#000" stroke-miterlimit="10" cx="226.791" cy="233.591" r="4"/><circle fill="#FFF" stroke="#000" stroke-miterlimit="10" cx="226.791" cy="133.292" r="4"/></svg>

<svg xmlns="http://www.w3.org/2000/svg" viewBox="0 0 493.329 330.58" xml:space="preserve"><path fill="none" stroke="#CCC" stroke-miterlimit="10" d="M426.78 32.58v160M376.78 32.58v160M326.78 32.58v160M276.78 32.58v160M226.78 32.58v160M176.78 32.58v160M126.78 32.58v160M76.78 32.58v160M426.78 209.58v121M376.78 209.58v121M326.78 209.58v121M276.78 209.58v121M226.78 209.58v121M176.78 209.58v121M126.78 209.58v121M76.78 209.58v121M477.28 83.08h-451M477.28 133.08h-451M477.28 183.08h-451M477.28 233.08h-451M477.28 283.08h-451"/><path fill="none" stroke="#000" stroke-miterlimit="10" d="M26.78 324.58v-286"/><path fill="#000" d="m30.846 321.366-3.703 1.574-3.704-1.574 3.704 8.779zM30.846 41.53l-3.703-1.573-3.704 1.573 3.704-8.779z"/><path fill="none" stroke="#000" stroke-miterlimit="10" d="M471.28 183.08h-444"/><path fill="#000" d="m468.864 179.048 1.574 3.703-1.574 3.704 8.779-3.704z"/><text transform="translate(482.254 188.552)" font-family="'Equity Text B'" font-style="italic" font-size="24">x</text><text transform="translate(13.254 20.472)"><tspan x="0" y="0" font-family="'Equity Text B'" font-style="italic" font-size="24" letter-spacing="2">f</tspan><tspan x="9.384" y="0" font-family="'Equity Text B'" font-size="24">(</tspan><tspan x="17.231" y="0" font-family="'Equity Text B'" font-style="italic" font-size="24">x</tspan><tspan x="27.815" y="0" font-family="'Equity Text B'" font-size="24">)</tspan></text><path fill="none" stroke="#000" stroke-miterlimit="10" d="M21.28 83.08h5M21.28 133.08h5M21.28 183.08h5M21.28 233.08h5M21.28 283.08h5M426.78 183.58v5M376.78 183.58v5M326.78 183.58v5M276.78 183.58v5M226.78 183.58v5M176.78 183.58v5M126.78 183.58v5M76.78 183.58v5"/><text transform="translate(73.349 206.396)" font-family="'Concourse T3'" font-size="16">1</text><text transform="translate(9.52 138.325)" font-family="'Concourse T3'" font-size="16">1</text><text transform="translate(7.28 188.251)" font-family="'Concourse T3'" font-size="16">0</text><text transform="translate(1.44 238.177)" font-family="'Concourse T3'" font-size="16">−1</text><text transform="translate(0 288.103)" font-family="'Concourse T3'" font-size="16">−2</text><text transform="translate(8.08 88.326)" font-family="'Concourse T3'" font-size="16">2</text><text transform="translate(123.148 206.396)" font-family="'Concourse T3'" font-size="16">2</text><text transform="translate(172.648 206.396)" font-family="'Concourse T3'" font-size="16">3</text><text transform="translate(222.348 206.396)" font-family="'Concourse T3'" font-size="16">4</text><text transform="translate(272.648 206.396)" font-family="'Concourse T3'" font-size="16">5</text><text transform="translate(322.728 206.396)" font-family="'Concourse T3'" font-size="16">6</text><text transform="translate(372.908 206.396)" font-family="'Concourse T3'" font-size="16">7</text><text transform="translate(422.888 206.396)" font-family="'Concourse T3'" font-size="16">8</text><path fill="none" stroke="#000" stroke-width="2" stroke-miterlimit="10" d="M33.28 233.58h194"/><path fill="#000" d="m36.059 237.283-1.574-3.703 1.574-3.704-8.779 3.704z"/><path fill="none" stroke="#000" stroke-width="2" stroke-miterlimit="10" d="M227.28 133.58h244"/><path fill="#000" d="m468.502 137.283 1.573-3.703-1.573-3.704 8.778 3.704z"/><circle fill="#FFF" stroke="#000" stroke-miterlimit="10" cx="226.791" cy="233.591" r="4"/><circle fill="#FFF" stroke="#000" stroke-miterlimit="10" cx="226.791" cy="133.292" r="4"/></svg>
